X:1
T:When Jesus Wept (Round)
M:3/4
L:1/4
K:Eb
 z2 C| G2 F| G3/4- A/4- B E| G3/4- F/4- E D| C2 C| z2 C| z2 C| G2 F|\
 G3/4- A/4- B E| G3/4- F/4- E D| C2 C| C2 B,| E- D C| z2 C| G2 F| G3/4- A/4- B E|\
 C2 G,| C2 G| c- G B| E- F G| G2 G| G3/4- F/4- E D| C2 C| C2 B,| E- D C|\
 C2 G,| G2 E| G3/4- F/4- E D| E- A G| E3/4- D/4- C B,| C2 z| C2 G|\
 c- G B| E- F G| G2 G| G2 E| G3/4- F/4- E D| E- A G| E3/4- D/4- C B,|\
 C2 z|
